packages/ui/assets/svg/upcoming_algorand.svg

<svg class="icon-size" width="30" height="30" viewBox="0 0 30 30" fill="none" xmlns="http://www.w3.org/2000/svg">
<g id="algorand" clip-path="url(#clip0_211_11)">
<path class="fill" d="M5.18519 30L9.52381 22.4868L13.8624 15L18.1746 7.48677L18.8889 6.2963L19.2063 7.48677L20.5291 12.4339L19.0476 15L14.709 22.4868L10.3968 30H15.582L19.9206 22.4868L22.1693 18.5979L23.2275 22.4868L25.2381 30H29.8942L27.8836 22.4868L25.873 15L25.3439 13.0688L28.5714 7.48677H23.8624L23.7037 6.93122L22.0635 0.793651L21.8519 0H17.328L17.2222 0.15873L12.9894 7.48677L8.65079 15L4.33862 22.4868L0 30H5.18519Z" fill="black"></path>
</g>
<defs>
<clipPath id="clip0_211_11">
<rect width="29.8942" height="30" fill="white"></rect>
</clipPath>
</defs>
</svg>

<svg class="icon-size" width="30" height="30" viewBox="0 0 30 30" fill="none" xmlns="http://www.w3.org/2000/svg"><g clip-path="url(#clip0_211_11)"><path class="fill" d="m5.185 30 4.339-7.513L13.862 15l4.313-7.513.714-1.19.317 1.19 1.323 4.947L19.048 15l-4.339 7.487L10.397 30h5.185l4.339-7.513 2.248-3.89 1.058 3.89L25.238 30h4.656l-2.01-7.513L25.873 15l-.53-1.931 3.228-5.582h-4.709l-.158-.556-1.64-6.137L21.852 0h-4.524l-.106.159-4.233 7.328L8.651 15l-4.312 7.487L0 30h5.185Z" fill="#000"/></g><defs><clipPath id="clip0_211_11"><path fill="#fff" d="M0 0h29.894v30H0z"/></clipPath></defs></svg>
